X: 9281
T: Dance Of The Gypsy Queen, The
R: hornpipe
M: 4/4
K: Gmajor
EFGB EFGB|EFGA BcdB|EFGB EFGA|BA{c/}AG FDEB|
EFGB EFGB|EFGA Bcdz|EFGB EFGz|BA{c/}AG FDEz|
|:cdeg cdeg|cdeg fgaz|cdeg cdeg|ba{c'/}ag fdez:|
|:bz{c'/}ba gagf|ef{a/}ge fgaz|bzab gafg|1 egfde2e2:|2 egfde2BG||

